X:1
T:Title
%%score { ( 1 3 ) | ( 2 4 5 ) }
L:1/8
M:6/8
K:Ab
V:1 treble nm="Grand Piano"
V:3 treble 
V:2 bass 
V:4 bass 
V:5 bass 
V:1
 z3 z2[Q:1/4=84] [CE] | [CA]>[CB][CA] [DG]2 E | [Gd]>[Ge][Gd] c2 E | [CA]>[CB][CA] [B,G]2 [B,E] | %4
[M:5/8] [CF]2 [=DB] [EB]2 |[M:1/8] [DE] |[M:3/4] [CA]>[CB] [CA] [DG]2 E | [Gd]>[Ge] [Gd] c2 c | %8
 B>c B c2 [A=d] | e6 |[M:1/8] E |[M:3/4] [Ec]>d [Ec] [CA]2 [CE] | [Ec]>d [Ec] [CA]2 [Ac] | %13
 [Ge]2 [Gd][Ac]- [Ac]/B/[CFA] | z2 z .B3 | [ce]>e [ce] [Ae]2 [Ec] | [ce]>e [ce] [Ae]2 E | %17
 [Ee]2 [Fd] [Ec]2 [DGB] | [CA]6 |] %19
V:2
 z3 z2 [A,,A,] | [A,,E,]>[A,,E,][A,,E,] [B,,E,]2 [E,G,] | %2
 [E,B,]>[E,B,][E,E][K:treble] [A,EA]2 [A,C] | [A,,A,]>[A,,A,][A,,E,] [B,,E,]2 [B,,G,] | %4
[M:5/8] [B,,A,]2 [B,,A,] [E,G,]2 |[M:1/8] [E,G,] |[M:3/4] [A,,E,]>[A,,E,] [A,,E,] [B,,E,]2 [E,G,] | %7
 [E,B,]>[E,B,] [E,E][K:treble] [A,EA]2 [A,EA] | [B,EG]>[B,EG] [B,EG] [B,=DA]2[K:bass] [B,,B,] | %9
 B,2 z2 z2 |[M:1/8] [E,G,] |[M:3/4] .[A,,A,]>[K:treble]F A,[K:bass]A,, E,A, | %12
 .A,,>[K:treble]F A,[K:bass]A,, E,A, | z2[K:treble] z2 .C2[K:bass] | %14
 z z/ =D/ [A,D] [E,-E]2 [E,_D] | .A,,>[K:treble]d A,C[K:bass] A,E, | %16
 .A,,>[K:treble]d A,C[K:bass] A,E, | [C,A,]2 [D,A,] [E,A,]2 E, | A,,6 |] %19
V:3
 x6 | x6 | x6 | x6 |[M:5/8] x5 |[M:1/8] x |[M:3/4] x6 | x6 | x6 | G2 A B3 |[M:1/8] x |[M:3/4] x6 | %12
 x6 | x6 | [=DB]>c B<.c B,[Ee] | x6 | x6 | x6 | x6 |] %19
V:4
 x6 | x6 | x3[K:treble] x3 | x6 |[M:5/8] x5 |[M:1/8] x |[M:3/4] x6 | x3[K:treble] x3 | %8
 x5[K:bass] x | E,2- [E,-C] [E,D]3 |[M:1/8] x |[M:3/4] z E,[K:treble] z2[K:bass] z2 | %12
 z E,[K:treble] z2[K:bass] z2 | E,B,[K:treble] EA, z/ G/[K:bass]F, | z F, z G, z2 | %15
 z E,[K:treble] z2[K:bass] z2 | z E,[K:treble] z2[K:bass] z2 | x6 | x6 |] %19
V:5
 x6 | x6 | x3[K:treble] x3 | x6 |[M:5/8] x5 |[M:1/8] x |[M:3/4] x6 | x3[K:treble] x3 | %8
 x5[K:bass] x | x6 |[M:1/8] x |[M:3/4] x3/2[K:treble] x3/2[K:bass] x3 | %12
 x3/2[K:treble] x3/2[K:bass] x3 | x2[K:treble] x3[K:bass] x | B,,4 z2 | %15
 x3/2[K:treble] x5/2[K:bass] x2 | x3/2[K:treble] x5/2[K:bass] x2 | x6 | x6 |] %19

